picto/ski-rack-framed.svg

<svg class="color-immutable" width="30" height="30" viewBox="0 0 30 30" fill="none" xmlns="http://www.w3.org/2000/svg"><path d="M30 0H0V30H30V0Z" fill="#2D327D"/><path d="M25.5 3C26.325 3 27 3.675 27 4.5V25.5C27 26.325 26.325 27 25.5 27H4.5C3.675 27 3 26.325 3 25.5V4.5C3 3.675 3.675 3 4.5 3H25.5ZM25.5 2.625H4.5C3.46613 2.625 2.625 3.46613 2.625 4.5V25.5C2.625 26.5339 3.46613 27.375 4.5 27.375H25.5C26.5339 27.375 27.375 26.5339 27.375 25.5V4.5C27.375 3.46613 26.5339 2.625 25.5 2.625Z" fill="white"/><path d="M7.03161 19.7948C7.45296 19.7948 7.79504 19.4537 7.79504 19.0316C7.79504 18.6103 7.45296 18.2684 7.03161 18.2684C6.60981 18.2684 6.26819 18.6103 6.26819 19.0316C6.26819 19.4537 6.60981 19.7948 7.03161 19.7948Z" fill="white"/><path d="M12.5903 19.7948C13.0118 19.7948 13.3535 19.4537 13.3535 19.0316C13.3535 18.6103 13.0118 18.2684 12.5903 18.2684C12.1688 18.2684 11.8269 18.6103 11.8269 19.0316C11.8269 19.4537 12.1688 19.7948 12.5903 19.7948Z" fill="white"/><path d="M6.99408 11.6738C7.41543 11.6738 7.75721 11.332 7.75721 10.9104C7.75721 10.4887 7.41543 10.147 6.99408 10.147C6.57213 10.147 6.22998 10.4887 6.22998 10.9104C6.22998 11.332 6.57213 11.6738 6.99408 11.6738Z" fill="white"/><path d="M12.5674 11.6738C12.9886 11.6738 13.3309 11.332 13.3309 10.9104C13.3309 10.4887 12.9887 10.147 12.5674 10.147C12.1456 10.147 11.8043 10.4887 11.8043 10.9104C11.8043 11.332 12.1456 11.6738 12.5674 11.6738Z" fill="white"/><path d="M10.8417 24.1707L11.4811 24.5979L7.95535 6.87867L7.95145 6.87957L7.9213 6.782C7.88305 6.66582 7.84172 6.6128 7.71655 6.40557C7.59197 6.19902 7.40552 5.99645 7.13695 5.84112C6.86755 5.68557 6.51655 5.64282 6.51655 5.64282C6.51655 5.64282 6.36932 5.73725 6.4297 5.77115C6.49007 5.80535 7.04447 6.19812 7.1758 6.39597C7.30712 6.59382 7.4173 6.9851 7.4173 6.9851L7.4881 6.9722L7.41992 6.98592L8.9275 14.5564L8.77187 14.5867L8.5825 14.7534L8.404 14.8806L8.3029 15.2147L8.22745 15.7284L7.6741 16.5388L7.19335 16.6325L7.36405 17.5053L9.42917 17.1014" fill="white"/><path d="M12.9836 16.4085L12.8132 15.5361L12.3324 15.63L11.5145 15.0878L11.252 14.6393L11.0321 14.3684L10.8193 14.3173L10.581 14.2343L10.4547 14.2589L8.94767 6.68963L8.9488 6.68933C8.9488 6.68933 8.90957 6.2823 8.95645 6.04988C9.0031 5.81723 9.36932 5.24543 9.41275 5.19023C9.4555 5.13608 9.28352 5.10413 9.28352 5.10413C9.28352 5.10413 8.9746 5.2761 8.7841 5.52075C8.59277 5.76668 8.49662 6.02385 8.45912 6.26213C8.42042 6.501 8.40257 6.56603 8.41097 6.6876L8.41907 6.79988L8.41682 6.8004L11.9434 24.5199L12.3692 23.8732L10.9616 16.8035L12.9836 16.4085Z" fill="white"/></svg>

<svg class="color-immutable" width="30" height="30" viewBox="0 0 30 30" fill="none" xmlns="http://www.w3.org/2000/svg"><g clip-path="url(#a)"><path d="M30 0H0v30h30V0Z" fill="#2D327D"/><path d="M25.5 3c.825 0 1.5.675 1.5 1.5v21c0 .825-.675 1.5-1.5 1.5h-21c-.825 0-1.5-.675-1.5-1.5v-21C3 3.675 3.675 3 4.5 3h21Zm0-.375h-21A1.877 1.877 0 0 0 2.625 4.5v21c0 1.034.841 1.875 1.875 1.875h21a1.877 1.877 0 0 0 1.875-1.875v-21A1.877 1.877 0 0 0 25.5 2.625Z" fill="#fff"/><path d="M7.032 19.795a.763.763 0 1 0 0-1.526.763.763 0 0 0 0 1.526ZM12.59 19.795a.763.763 0 1 0 .001-1.526.763.763 0 0 0 0 1.526ZM6.994 11.674a.763.763 0 1 0 0-1.527.763.763 0 0 0 0 1.527ZM12.567 11.674a.764.764 0 1 0 0-1.528.764.764 0 0 0 0 1.528Z" fill="#fff"/><path d="m10.842 24.17.64.428-3.527-17.72-.004.002-.03-.098c-.038-.116-.08-.17-.204-.376a1.61 1.61 0 0 0-.58-.565c-.27-.155-.62-.198-.62-.198s-.148.094-.087.128c.06.034.614.427.746.625.131.198.241.59.241.59l.071-.014-.068.014 1.508 7.57-.156.03-.19.167-.178.128-.101.334-.076.513-.553.81-.48.095.17.872 2.065-.404M12.984 16.409l-.17-.873-.482.094-.818-.542-.262-.449-.22-.27-.213-.052-.238-.083-.126.025-1.507-7.57s-.038-.407.008-.64c.047-.232.413-.804.457-.859.043-.054-.13-.086-.13-.086s-.308.172-.499.417a1.604 1.604 0 0 0-.325.741c-.039.239-.056.304-.048.426l.008.112h-.002l3.526 17.72.426-.647-1.407-7.07 2.022-.395Z" fill="#fff"/></g><defs><clipPath id="a"><path fill="#fff" d="M0 0h30v30H0z"/></clipPath></defs></svg>
